svg/blobs-icons/no-decorations/lampshade.svg

<svg xmlns="http://www.w3.org/2000/svg" xmlns:xlink="http://www.w3.org/1999/xlink" preserveAspectRatio="xMidYMid" width="163" height="217" viewBox="0 0 163 217"><defs><style>.cls-3{fill:#fbb713}.cls-4{fill:#020403;opacity:.25}.cls-5{fill:#ff3a2f}.cls-6{fill:#020403;opacity:.35}.cls-8{fill:#fff}</style></defs><g id="group-133svg"><path d="M162.383 144.586s-162.394.0-162.394.0S41.276.0 41.276.0s79.821.0 79.821.0 41.286 144.586 41.286 144.586z" id="path-1" class="cls-3" fill-rule="evenodd"/><path d="M121.097.0s-8.78.0-8.78.0 39.222 137.356 39.222 137.356-149.486.0-149.486.0S-.011 144.586-.011 144.586s162.394.0 162.394.0S121.097.0 121.097.0z" id="path-2" class="cls-4" fill-rule="evenodd"/><path d="M88.416 216.88s-14.459.0-14.459.0.0-72.294.0-72.294 14.459.0 14.459.0.0 72.294.0 72.294z" id="path-3" class="cls-5" fill-rule="evenodd"/><path d="M88.416 162.66s-14.459.0-14.459.0.0-18.074.0-18.074 14.459.0 14.459.0.0 18.074.0 18.074z" id="path-4" class="cls-6" fill-rule="evenodd"/><path d="M45.04 216.88S45.04 209.651 45.04 209.651s72.292.0 72.292.0S117.332 216.88 117.332 216.88s-72.292.0-72.292.0z" id="path-5" class="cls-5" fill-rule="evenodd"/><path d="M30.286 103.019C29.949 103.019 29.608 102.972 29.268 102.873 27.354 102.313 26.255 100.305 26.814 98.389L48.5 24.219C49.062 22.304 51.064 21.201 52.986 21.765 54.901 22.326 56 24.332 55.441 26.249L33.754 100.418C33.291 101.996 31.849 103.019 30.286 103.019z" id="path-6" class="cls-8" fill-rule="evenodd"/></g></svg>

<svg xmlns="http://www.w3.org/2000/svg" xmlns:xlink="http://www.w3.org/1999/xlink" preserveAspectRatio="xMidYMid" width="163" height="217" viewBox="0 0 163 217">
  <defs>
    <style>

      .cls-3 {
        fill: #fbb713;
      }

      .cls-4 {
        fill: #020403;
        opacity: 0.25;
      }

      .cls-5 {
        fill: #ff3a2f;
      }

      .cls-6 {
        fill: #020403;
        opacity: 0.35;
      }

      .cls-8 {
        fill: #ffffff;
      }
    </style>
  </defs>
  <g id="group-133svg">
    <path d="M162.383,144.586 C162.383,144.586 -0.011,144.586 -0.011,144.586 C-0.011,144.586 41.276,0.000 41.276,0.000 C41.276,0.000 121.097,0.000 121.097,0.000 C121.097,0.000 162.383,144.586 162.383,144.586 Z" id="path-1" class="cls-3" fill-rule="evenodd"/>
    <path d="M121.097,0.000 C121.097,0.000 112.317,0.000 112.317,0.000 C112.317,0.000 151.539,137.356 151.539,137.356 C151.539,137.356 2.053,137.356 2.053,137.356 C2.053,137.356 -0.011,144.586 -0.011,144.586 C-0.011,144.586 162.383,144.586 162.383,144.586 C162.383,144.586 121.097,0.000 121.097,0.000 Z" id="path-2" class="cls-4" fill-rule="evenodd"/>
    <path d="M88.416,216.880 C88.416,216.880 73.957,216.880 73.957,216.880 C73.957,216.880 73.957,144.586 73.957,144.586 C73.957,144.586 88.416,144.586 88.416,144.586 C88.416,144.586 88.416,216.880 88.416,216.880 Z" id="path-3" class="cls-5" fill-rule="evenodd"/>
    <path d="M88.416,162.660 C88.416,162.660 73.957,162.660 73.957,162.660 C73.957,162.660 73.957,144.586 73.957,144.586 C73.957,144.586 88.416,144.586 88.416,144.586 C88.416,144.586 88.416,162.660 88.416,162.660 Z" id="path-4" class="cls-6" fill-rule="evenodd"/>
    <path d="M45.040,216.880 C45.040,216.880 45.040,209.651 45.040,209.651 C45.040,209.651 117.332,209.651 117.332,209.651 C117.332,209.651 117.332,216.880 117.332,216.880 C117.332,216.880 45.040,216.880 45.040,216.880 Z" id="path-5" class="cls-5" fill-rule="evenodd"/>
    <path d="M30.286,103.019 C29.949,103.019 29.608,102.972 29.268,102.873 C27.354,102.313 26.255,100.305 26.814,98.389 C26.814,98.389 48.500,24.219 48.500,24.219 C49.062,22.304 51.064,21.201 52.986,21.765 C54.901,22.326 56.000,24.332 55.441,26.249 C55.441,26.249 33.754,100.418 33.754,100.418 C33.291,101.996 31.849,103.019 30.286,103.019 Z" id="path-6" class="cls-8" fill-rule="evenodd"/>
  </g>
</svg>
